X:1
T:Soleta so yo
T:Bartomeu Carceres (?)
T:Source : Cancionero de Uppsala : Villancicos---Venetia---G.Scotto---1556. Editor : André Vierendeels (09/04/17).
T:Notes : Original clefs : C&, C2, C3 Editorrial accidentals above the staff Original note values have been halved Square brackets indicate ligatures Dotted brackets indicate black notes
T:Soleta so yo
T:©
T:©
T:©
T:©
C:Bartomeu Carceres
Z:©
%%score [ 1 2 3 ]
L:1/8
Q:1/4=120
M:6/4
K:F
V:1 treble nm="Soprano" snm="S"
V:2 treble nm="Alto" snm="A"
V:3 treble-8 nm="Tenor" snm="T"
V:1
 z12 | z2 z2 A2 A4 F2 | G2 A2 G2 F6 | z2 A2 B2 c4 A2 | B2 G4 F4 z2 | z4 G4 G2- x2 | %6
w: |So- le- ta|so yo a- çi,|si vo- leu queus|va- ya'o- brir|a- ra|
 G2 E2 F2 G4 G2 | G2 E4 F6 | E6 D6 | z4 G4 G4- | G2 E2 F2 G4 G2 | G2 E4 F6 | E6 D6 || D4 D2 C4 z2 | %14
w: _ que- nes ho- ra|si vo- leu|ve- nir,|a- ra|_ que- nes ho- ra|si vo- leu|ve- nir.|Mon ma- rit|
 D2 D4 C4 C2 | D2 E4 C4 D2 | D4 D2 D2 D2 B,2 | C4 C2 D4 E2 | F2 E2 G2 F2 E4 | D4 A2 A4 F2 | %20
w: es de fo- ra|hont a- mont- al-|ba de ma be- se-|ra mig yor- na|bans que no tor- na-|ra, e- yo queu|
 G2 A4 F4 A2 | c4 A2 B2 G2 G2 | A6 G4 G2- | G2 E2 F2 G4 G2 | G2 E4 F6 | E6 D2 G2 E2 | F6 E6 | %27
w: sa- bia pla- que|tos- temps _ ho f''a-|xi a- ra|_ que- nes ho- ra|si vo- leu|ve- nir, si vo-|leu ve-|
 D12 |] %28
w: nir.|
V:2
 z2 z2 A,2 C4 D2 | D2 C2 C2 D2 C4 | D2 E4 C2 C2 D2 | A,2 D2 F2 G2 A2 F2- | F2 E2 E2 F4 D2 | %5
w: So- le- ta|so yo a- çi, so|yo a- çi, si vo-|leu, si vo- leu queue va-|* ya o- brir, a-|
 D2 C2 D2 E4 D2 | D4 C2 D2 D2 D2 | E2 G2 E2 D4 D2- | D2 C4 D4 D2 | D2 C2 D2 E4 D2 | %10
w: ra que- nes ho- ra|si vo- leu, si vo-|leu ve- * * *|* * nir, a-|ra que- nes ho- ra|
 D4 C2 D2 D2 D2 | E2 G2 E2 D4 D2- |"^#" D2 C4 D6 || F4 G2 E4 F2- | F2 G4 A4 E2 | F2 G4 E4 D2 | %16
w: si vo- leu, si vo-|leu, si vo- leu ve-|* * nir.|Mon ma- rit es|_ de fo- ra|hont a- mont- al-|
 F4 D2 F2 G2 G2 | E4 E2 D4 C2 | D2 E2 E2 D4 C2 | D4 E2 F4 D2 | D2 F4 D4 D2 | A2 G2 F2 F4 E2 | %22
w: ba, de- ma be- se-|ra mig yor- na-|bans que no tor- na-|ra, e- yo queu|sa- bia pla- que|tos- temps ho fa- xi|
 F4 E2 E2 D2 D2 | E4 C2 z2 D2 D2 | E2 E2 E2 C4 D2- | D2 C4 D2 E2 E2 |"^#" C4 D4 C4 | D12 |] %28
w: a- ra que- nes ho-|* ra, si vo-|leu, si vo- leu ve-|* * nir, si vo-|leu ve- *|nir.|
V:3
 z2 z2 A2 A4 F2 | G2 A2 A2 F4 F2 | B2 c4 F2 A2 B2 | c2 f2 d2 c2 A2 d2 | B2 c4 F2 B4 | %5
w: So- le- ta|so yo a- çi, so|yo a- çi si vo-|leu ve- nir, si vo- leu|queus va- ya a-|
 B2 A2 B2 c2 G4 | G2 A4 G2 G2 G2 | c4 c2 d2 B2 F2 | G2 A4 d2 B4 | B2 A2 B2 c2 G4 | G2 A4 G2 G2 G2 | %11
w: brir, a- ra que- nes|ho- ra si vo- leu,|si vo- leu ve- nir,|si vo- leu ve-|nir, a- ra que- nes|ho- ra si vo- leu,|
 c4 c2 d2 B2 F2 | G2 A4 d6 || B4 G2 A4 z2 | d2 B4 A4 A2 | d2 c2 G2 A4 D2 | z2 B4 B2 G2 G2 | %17
w: si vo- leu, si vo-|leu ve nir.|Mon ma- rit|es de fo- ra|hont a mont- al- ba,|de ma be- se-|
 A4 A2 d4 A2 | d2 c2 c2 F2 A4 | B4 A2 d4 d2 | G2 F4 B2 d2 f2- | f2 c2 d2 B2 c4 | F2 A4 c2 B2 G2 | %23
w: ra mig yor- na-|bans que no tor- na-|ra, e- yo queu|sa- bia pla- que tos-|* temps ho fa- xi|a- ra que- nes ho-|
 c3 B A2 G2 G2 G2 | c4 c2 F2 A2 B2 | G2 A4 d2 c2 c2 | F2 A2 B2 G2 A4 | d12 |] %28
w: ra _ _ si vo- leu|ve- nir, si vo- leu|ve- * nir, si vo-|leu, si vo- leu ve-|nir.|

